src/images/fiatActive.svg

<svg height="29" viewBox="0 0 30 29" width="30" xmlns="http://www.w3.org/2000/svg" xmlns:xlink="http://www.w3.org/1999/xlink"><linearGradient id="a" x1="0%" x2="99.393%" y1="32.569%" y2="32.569%"><stop offset="0" stop-color="#5269ff"/><stop offset="1" stop-color="#4890ff"/></linearGradient><g fill="none" fill-rule="evenodd"><path d="m0 23.182 9.999 5.778 19.997-11.555v-11.592l-9.999-5.778-19.997 11.592z" fill="url(#a)"/><path d="m0 11.627 9.999 5.778 19.997-11.592v11.592l-19.997 11.555-9.999-5.778z" fill="#dce1ff" fill-rule="nonzero"/><path d="m9.999 28.96v-11.555l19.997-11.592v11.592z" fill="url(#a)"/><g fill-rule="nonzero"><g fill="#fff" transform="translate(2.436 1.347)"><path d="m17.561.01-17.497 10.055 7.59 4.335 17.498-10.054-7.59-4.336zm-9.908 13.41-5.878-3.357 15.787-9.071 5.878 3.356-15.787 9.07z"/><ellipse cx="12.85" cy="6.962" rx="3.279" ry="1.864"/></g><g fill="#fff"><ellipse cx="20.362" cy="5.549" rx="1.417" ry="1"/><ellipse cx="9.999" cy="11.47" rx="1.417" ry="1"/></g><path d="m0 13.112v.283l9.998 5.926v-.283zm0 1.552v.282l9.998 5.926v-.282zm0 1.551v.283l9.998 5.926v-.282zm0 1.552v.283l9.998 5.926v-.282zm0 1.552v.283l9.998 5.926v-.283zm0 1.551v.283l9.998 5.926v-.282z" fill="#fff"/><path d="m29.996 7.427-19.997 11.613v.281l19.997-11.613zm0 1.552-19.997 11.612v.281l19.997-11.612zm0 1.551-19.997 11.613v.282l19.997-11.612zm0 1.552-19.997 11.612v.282l19.997-11.613zm-19.996 13.164-.001.281 19.997-11.612v-.28zm0 1.552-.001.281 19.997-11.612v-.281z" fill="#d5ddff"/></g></g></svg>

<svg xmlns="http://www.w3.org/2000/svg" width="30" height="29" viewBox="0 0 30 29">
    <defs>
        <linearGradient id="a" x1="0%" x2="99.393%" y1="32.569%" y2="32.569%">
            <stop offset="0%" stop-color="#5269FF"/>
            <stop offset="100%" stop-color="#4890FF"/>
        </linearGradient>
        <linearGradient id="b" x1="0%" x2="99.393%" y1="32.569%" y2="32.569%">
            <stop offset="0%" stop-color="#5269FF"/>
            <stop offset="100%" stop-color="#4890FF"/>
        </linearGradient>
    </defs>
    <g fill="none" fill-rule="evenodd">
        <path fill="url(#a)" d="M0 23.182l9.999 5.778 19.997-11.555V5.813L19.997.035 0 11.627z"/>
        <path fill="#DCE1FF" fill-rule="nonzero" d="M0 11.627l9.999 5.778L29.996 5.813v11.592L9.999 28.96 0 23.182z"/>
        <path fill="url(#b)" d="M9.999 28.96V17.405L29.996 5.813v11.592z"/>
        <g fill="#FFF" fill-rule="nonzero" transform="translate(2.436 1.347)">
            <path d="M17.561.01L.064 10.065l7.59 4.335L25.152 4.346 17.562.01zM7.653 13.42l-5.878-3.357L17.562.992l5.878 3.356-15.787 9.07z"/>
            <ellipse cx="12.85" cy="6.962" rx="3.279" ry="1.864"/>
        </g>
        <g fill="#FFF" fill-rule="nonzero" transform="translate(8.526 4.684)">
            <ellipse cx="11.836" cy=".865" rx="1.417" ry="1"/>
            <ellipse cx="1.473" cy="6.786" rx="1.417" ry="1"/>
        </g>
        <g fill="#FFF" fill-rule="nonzero">
            <path d="M0 13.112v.283l9.998 5.926v-.283zM0 14.664v.282l9.998 5.926v-.282zM0 16.215v.283l9.998 5.926v-.282zM0 17.767v.283l9.998 5.926v-.282zM0 19.319v.283l9.998 5.926v-.283zM0 20.87v.283l9.998 5.926v-.282z"/>
        </g>
        <g fill="#D5DDFF" fill-rule="nonzero">
            <path d="M29.996 7.427L9.999 19.04v.281L29.996 7.708zM29.996 8.979L9.999 20.591v.281L29.996 9.26zM29.996 10.53L9.999 22.143v.282l19.997-11.612zM29.996 12.082L9.999 23.694v.282l19.997-11.613zM10 25.246l-.001.281 19.997-11.612v-.28zM10 26.798l-.001.281 19.997-11.612v-.281z"/>
        </g>
    </g>
</svg>
